icons/slim.svg

<svg width="16" height="16" viewBox="0 0 16 16" fill="none" xmlns="http://www.w3.org/2000/svg">
<path d="M11.9976 9.21166C11.9992 9.14273 12 9.07219 12 9C12 8.29013 11.9396 7.60493 11.8274 6.95929C11.8177 6.88664 11.808 6.81584 11.7981 6.74699C11.7938 6.71729 11.7854 6.69033 11.7722 6.66557C11.6516 6.06912 11.4862 5.50979 11.283 5H11.4384C12.3562 5 13.1528 5.62588 13.2829 6.53435C13.3961 7.32416 13.5 8.3601 13.5 9.5C13.5 10.6399 13.3961 11.6758 13.2829 12.4657C13.1528 13.3741 12.3562 14 11.4384 14H4.56155C3.64382 14 2.84715 13.3741 2.71705 12.4657C2.60395 11.6758 2.5 10.6399 2.5 9.5C2.5 8.3601 2.60395 7.32416 2.71705 6.53435C2.84715 5.62588 3.64382 5 4.56155 5H4.71697C4.51377 5.50979 4.34836 6.06912 4.22783 6.66557C4.21463 6.69033 4.20616 6.71729 4.20191 6.74699C4.19205 6.81584 4.18227 6.88665 4.17264 6.9593C4.06038 7.60494 4 8.29013 4 9C4 9.08441 4.00062 9.16657 4.00184 9.24653C4.00063 9.33039 4 9.4149 4 9.5C4 10.552 4.09619 11.5148 4.20191 12.253C4.21109 12.3171 4.23992 12.3685 4.29361 12.4124C4.3518 12.46 4.44367 12.5 4.56155 12.5H11.4384C11.5563 12.5 11.6482 12.46 11.7064 12.4124C11.7601 12.3685 11.7889 12.3171 11.7981 12.253C11.9038 11.5148 12 10.552 12 9.5C12 9.40309 11.9992 9.30695 11.9976 9.21166Z" fill="#CC8A3C"/>
<path fill-rule="evenodd" clip-rule="evenodd" d="M8 7.5C8.82843 7.5 9.5 6.82843 9.5 6C9.5 5.17157 8.82843 4.5 8 4.5C7.17157 4.5 6.5 5.17157 6.5 6C6.5 6.82843 7.17157 7.5 8 7.5ZM8 9C9.65685 9 11 7.65685 11 6C11 4.34315 9.65685 3 8 3C6.34315 3 5 4.34315 5 6C5 7.65685 6.34315 9 8 9Z" fill="#CC8A3C"/>
<path fill-rule="evenodd" clip-rule="evenodd" d="M5.25 10.5C5.25 10.0858 5.58579 9.75 6 9.75H6.5C6.91421 9.75 7.25 10.0858 7.25 10.5C7.25 10.9142 6.91421 11.25 6.5 11.25H6C5.58579 11.25 5.25 10.9142 5.25 10.5Z" fill="#CC8A3C"/>
<path fill-rule="evenodd" clip-rule="evenodd" d="M8.75 10.5C8.75 10.0858 9.08579 9.75 9.5 9.75H10C10.4142 9.75 10.75 10.0858 10.75 10.5C10.75 10.9142 10.4142 11.25 10 11.25H9.5C9.08579 11.25 8.75 10.9142 8.75 10.5Z" fill="#CC8A3C"/>
</svg>

<svg xmlns="http://www.w3.org/2000/svg" width="16" height="16" fill="none"><path fill="#CC8A3C" d="M11.998 9.212 12 9c0-.71-.06-1.395-.173-2.04a21.33 21.33 0 0 0-.029-.213.246.246 0 0 0-.026-.081A9.702 9.702 0 0 0 11.283 5h.155c.918 0 1.715.626 1.845 1.534.113.79.217 1.826.217 2.966 0 1.14-.104 2.176-.217 2.966-.13.908-.927 1.534-1.845 1.534H4.562c-.918 0-1.715-.626-1.845-1.534A21.174 21.174 0 0 1 2.5 9.5c0-1.14.104-2.176.217-2.966C2.847 5.626 3.644 5 4.562 5h.155a9.696 9.696 0 0 0-.49 1.666.245.245 0 0 0-.025.081l-.03.212a11.939 11.939 0 0 0-.17 2.288 19.671 19.671 0 0 0 .2 3.006.24.24 0 0 0 .092.16c.058.047.15.087.268.087h6.876c.118 0 .21-.04.268-.088a.24.24 0 0 0 .092-.159 19.674 19.674 0 0 0 .2-3.041Z"/><path fill="#CC8A3C" fill-rule="evenodd" d="M8 7.5a1.5 1.5 0 1 0 0-3 1.5 1.5 0 0 0 0 3ZM8 9a3 3 0 1 0 0-6 3 3 0 0 0 0 6ZM5.25 10.5A.75.75 0 0 1 6 9.75h.5a.75.75 0 0 1 0 1.5H6a.75.75 0 0 1-.75-.75ZM8.75 10.5a.75.75 0 0 1 .75-.75h.5a.75.75 0 0 1 0 1.5h-.5a.75.75 0 0 1-.75-.75Z" clip-rule="evenodd"/></svg>
